X:55
T:Highland Road to Inverness
T:Druimuachdar
R:Pipe Reel
S:Simon Fraser Collection
N:No.163
O:Scottish
M:C
L:1/8
Q:1/4=200
K:G
g|dGBG dG B2|dGBG Bddg|dBGB dG B2|cABG Bee:|
g|efge dG B2|efgd Bddg|efge dG B2|cABG Beeg|
efge dG B2|efge fgaf|bfge dg B2|cABG Bee||

